src/assets/icons/arrows,fancy,down-left.svg

<svg width="48" height="48" viewBox="0 0 48 48" fill="none" xmlns="http://www.w3.org/2000/svg">
<g clip-path="url(#clip0_37:577)">
<path opacity="0.8" d="M33.0409 7.6066C33.8219 6.82555 35.0882 6.82555 35.8693 7.6066L40.1119 11.8492C40.893 12.6303 40.893 13.8966 40.1119 14.6777L23.1414 31.6482C22.3603 32.4293 21.094 32.4293 20.3129 31.6482L16.0703 27.4056C15.2893 26.6245 15.2893 25.3582 16.0703 24.5772L33.0409 7.6066Z" fill="black"/>
<path d="M9.7065 14.5562L9.7065 36.012C9.7065 37.1166 10.6019 38.012 11.7065 38.012L33.1623 38.012C34.2669 38.012 35.1623 37.1166 35.1623 36.012L35.1623 30.1125C35.1623 29.008 34.2669 28.1125 33.1623 28.1125L21.606 28.1125C20.5014 28.1125 19.606 27.2171 19.606 26.1125L19.606 14.5562C19.606 13.4516 18.7106 12.5562 17.606 12.5562H11.7065C10.6019 12.5562 9.7065 13.4516 9.7065 14.5562Z" fill="black"/>
</g>
<defs>
<clipPath id="clip0_37:577">
<rect width="48" height="48" fill="white"/>
</clipPath>
</defs>
</svg>

<svg xmlns="http://www.w3.org/2000/svg" width="48" height="48" fill="none" viewBox="0 0 48 48">
  <g clip-path="url(#clip0_37:577)">
    <path fill="#000" d="M33.04 7.607a2 2 0 012.83 0l4.242 4.242a2 2 0 010 2.829l-16.97 16.97a2 2 0 01-2.83 0l-4.242-4.242a2 2 0 010-2.829l16.97-16.97z" opacity=".8"/>
    <path fill="#000" d="M9.707 14.556v21.456a2 2 0 002 2h21.455a2 2 0 002-2v-5.9a2 2 0 00-2-2H21.606a2 2 0 01-2-2V14.557a2 2 0 00-2-2h-5.9a2 2 0 00-2 2z"/>
  </g>
  <defs>
    <clipPath id="clip0_37:577">
      <path fill="#fff" d="M0 0h48v48H0z"/>
    </clipPath>
  </defs>
</svg>
